X:7112
T:the Mouse in the Sports Hold-All
O:england
M:7/8
C:Alan Dawson
A:Leeds
K:C
e2 fe dc_B|AB^cd fed| e2 e2 fed| e2 e2 dc_B:|
|:\
A2 d^c cA_B| e2 e2 d^c=B| A2 d^c cA_B|G_BG B2B>G:|
W:Copyright (C) Alan Dawson


